ExpEYES17/UserManual/schematics/halfwave.svg

<?xml version="1.0" encoding="UTF-8" standalone="no"?>
<svg
   xmlns:dc="http://purl.org/dc/elements/1.1/"
   xmlns:cc="http://creativecommons.org/ns#"
   xmlns:rdf="http://www.w3.org/1999/02/22-rdf-syntax-ns#"
   xmlns:svg="http://www.w3.org/2000/svg"
   xmlns="http://www.w3.org/2000/svg"
   xmlns:sodipodi="http://sodipodi.sourceforge.net/DTD/sodipodi-0.dtd"
   xmlns:inkscape="http://www.inkscape.org/namespaces/inkscape"
   version="1.1"
   id="halfwave"
   width="100%"
   height="100%"
   viewBox="-6 -6 534 342"
   sodipodi:docname="halfwave.svg"
   inkscape:version="0.92.3 (2405546, 2018-03-11)"
   inkscape:export-filename="/home/georgesk/developpement/expeyes/expeyes/ExpEYES17/UserManual/fr/rst/exp/schematics/halfwave.png"
   inkscape:export-xdpi="54.339622"
   inkscape:export-ydpi="54.339622">
  <metadata
     id="metadata97">
    <rdf:RDF>
      <cc:Work
         rdf:about="">
        <dc:format>image/svg+xml</dc:format>
        <dc:type
           rdf:resource="http://purl.org/dc/dcmitype/StillImage" />
        <dc:title />
      </cc:Work>
    </rdf:RDF>
  </metadata>
  <defs
     id="defs95" />
  <sodipodi:namedview
     pagecolor="#ffffff"
     bordercolor="#666666"
     borderopacity="1"
     objecttolerance="10"
     gridtolerance="10"
     guidetolerance="10"
     inkscape:pageopacity="0"
     inkscape:pageshadow="2"
     inkscape:window-width="1668"
     inkscape:window-height="1013"
     id="namedview93"
     showgrid="false"
     inkscape:zoom="2.0037453"
     inkscape:cx="267"
     inkscape:cy="171"
     inkscape:window-x="0"
     inkscape:window-y="0"
     inkscape:window-maximized="1"
     inkscape:current-layer="halfwave" />
  <desc
     id="desc2">
XCircuit Version 3.7
File &quot;halfwave.ps&quot; Page 1
</desc>
  <path
     style="fill:none;stroke:#000000;stroke-width:2;stroke-linecap:round;stroke-linejoin:bevel"
     inkscape:connector-curvature="0"
     id="path4"
     d="m 304,160 h 28" />
  <path
     style="fill:none;stroke:#000000;stroke-width:2;stroke-linecap:round;stroke-linejoin:bevel"
     inkscape:connector-curvature="0"
     id="path6"
     d="M 432,160 H 404" />
  <path
     style="fill:none;stroke:#000000;stroke-width:2;stroke-linecap:round;stroke-linejoin:bevel"
     inkscape:connector-curvature="0"
     id="path8"
     d="m 404,160 -6,-14 -12,28 -12,-28 -12,28 -12,-28 -12,28 -6,-14" />
  <path
     style="fill:none;stroke:#000000;stroke-width:2;stroke-linecap:round;stroke-linejoin:bevel"
     inkscape:connector-curvature="0"
     id="path10"
     d="m 128,272 v 48 h 64 v -48 z" />
  <circle
     style="fill:none;stroke:#000000;stroke-width:2;stroke-linecap:round;stroke-linejoin:bevel"
     r="16"
     id="ellipse24"
     cy="160"
     cx="288" />
  <path
     style="fill:none;stroke:#000000;stroke-width:2;stroke-linecap:round;stroke-linejoin:bevel"
     inkscape:connector-curvature="0"
     id="path26"
     d="m 320,80 h 58" />
  <path
     style="fill:none;stroke:#000000;stroke-width:2;stroke-linecap:round;stroke-linejoin:bevel"
     inkscape:connector-curvature="0"
     id="path28"
     d="M 448,80 H 390" />
  <path
     style="fill:none;stroke:#000000;stroke-width:2;stroke-linecap:round;stroke-linejoin:bevel"
     inkscape:connector-curvature="0"
     id="path30"
     d="m 390,48 v 64" />
  <path
     style="fill:none;stroke:#000000;stroke-width:2;stroke-linecap:round;stroke-linejoin:bevel"
     inkscape:connector-curvature="0"
     id="path32"
     d="m 378,48 v 64" />
  <path
     style="fill:none;stroke:#000000;stroke-width:2;stroke-linecap:round;stroke-linejoin:bevel"
     inkscape:connector-curvature="0"
     id="path34"
     d="m 256,272 v 48 h 64 v -48 z" />
  <path
     style="fill:none;stroke:#000000;stroke-width:2;stroke-linecap:round;stroke-linejoin:bevel"
     inkscape:connector-curvature="0"
     id="path36"
     d="m 384,272 v 48 h 96 v -48 z" />
  <path
     style="fill:none;stroke:#000000;stroke-width:2;stroke-linecap:round;stroke-linejoin:bevel"
     inkscape:connector-curvature="0"
     id="path38"
     d="M 0,0 V 336 H 528 V 0 Z" />
  <circle
     style="fill:none;stroke:#000000;stroke-width:2;stroke-linecap:round;stroke-linejoin:bevel"
     r="16"
     id="ellipse40"
     cy="160"
     cx="448" />
  <circle
     style="fill:none;stroke:#000000;stroke-width:2;stroke-linecap:round;stroke-linejoin:bevel"
     r="16"
     id="ellipse42"
     cy="160"
     cx="160" />
  <path
     style="fill:none;stroke:#000000;stroke-width:2;stroke-linecap:round;stroke-linejoin:bevel"
     inkscape:connector-curvature="0"
     id="path44"
     d="m 288,176 c 1,0 -48,64 0,96" />
  <path
     style="fill:#000000;stroke:none"
     inkscape:connector-curvature="0"
     id="path46"
     d="m 208,142 32,18 -32,18 z" />
  <path
     style="fill:none;stroke:#000000;stroke-width:2;stroke-linecap:round;stroke-linejoin:bevel"
     inkscape:connector-curvature="0"
     id="path48"
     d="m 176,160 h 32" />
  <path
     style="fill:none;stroke:#000000;stroke-width:2;stroke-linecap:round;stroke-linejoin:bevel"
     inkscape:connector-curvature="0"
     id="path50"
     d="M 272,160 H 240" />
  <path
     style="fill:none;stroke:#000000;stroke-width:2;stroke-linecap:round;stroke-linejoin:bevel"
     inkscape:connector-curvature="0"
     id="path52"
     d="m 240,142 v 36" />
  <path
     style="fill:none;stroke:#000000;stroke-width:2;stroke-linecap:round;stroke-linejoin:bevel"
     inkscape:connector-curvature="0"
     id="path54"
     d="m 16,272 v 48 h 96 v -48 z" />
  <path
     style="fill:none;stroke:#000000;stroke-width:2;stroke-linecap:round;stroke-linejoin:bevel"
     inkscape:connector-curvature="0"
     id="path56"
     d="M 288,144 V 80 h 32" />
  <path
     style="fill:none;stroke:#000000;stroke-width:2;stroke-linecap:round;stroke-linejoin:bevel"
     inkscape:connector-curvature="0"
     id="path58"
     d="M 448,144 V 80" />
  <path
     style="fill:none;stroke:#000000;stroke-width:2;stroke-linecap:round;stroke-linejoin:bevel"
     inkscape:connector-curvature="0"
     id="path60"
     d="m 448,176 c 1,0 64,64 0,96" />
  <path
     style="fill:none;stroke:#000000;stroke-width:2;stroke-linecap:round;stroke-linejoin:bevel"
     inkscape:connector-curvature="0"
     id="path62"
     d="M 64,272 C 96,224 32,192 144,160" />
  <path
     style="fill:none;stroke:#000000;stroke-width:2;stroke-linecap:round;stroke-linejoin:bevel"
     inkscape:connector-curvature="0"
     id="path64"
     d="m 160,272 c 1,0 32,-48 0,-96" />
  <text
     font-size="40"
     id="text68"
     style="font-size:40px;font-family:Helvetica;fill:#000000;stroke:none"
     x="30.903437"
     y="310.57999">
    <tspan
       x="30.903437"
       y="310.57999"
       id="tspan66">WG</tspan>
  </text>
  <text
     font-size="40"
     id="text74"
     style="font-size:40px;font-family:Helvetica;fill:#000000;stroke:none"
     x="139.36063"
     y="310.57999">
    <tspan
       x="139.36063"
       y="310.57999"
       id="tspan72">A1</tspan>
  </text>
  <text
     font-size="40"
     id="text80"
     style="font-size:40px;font-family:Helvetica;fill:#000000;stroke:none"
     x="264.08063"
     y="310.57999">
    <tspan
       x="264.08063"
       y="310.57999"
       id="tspan78">A2</tspan>
  </text>
  <text
     font-size="40"
     id="text86"
     style="font-size:40px;font-family:Helvetica;fill:#000000;stroke:none"
     x="387.78"
     y="310.57999">
    <tspan
       x="387.78"
       y="310.57999"
       id="tspan84">GND</tspan>
  </text>
  <text
     font-size="40"
     id="text20-3"
     style="font-size:40px;font-family:Helvetica;fill:#000000;stroke:none"
     x="321.34213"
     y="129.05455">
    <tspan
       x="321.34213"
       y="129.05455"
       id="tspan18-6">C</tspan>
  </text>
  <text
     xml:space="preserve"
     style="font-style:normal;font-variant:normal;font-weight:normal;font-stretch:normal;font-size:21.33333397px;line-height:23px;font-family:sans-serif;-inkscape-font-specification:'sans-serif, Normal';font-variant-ligatures:normal;font-variant-caps:normal;font-variant-numeric:normal;font-feature-settings:normal;text-align:center;letter-spacing:0px;word-spacing:0px;writing-mode:lr-tb;text-anchor:middle;fill:#000000;fill-opacity:1;stroke:none;stroke-width:1px;stroke-linecap:butt;stroke-linejoin:miter;stroke-opacity:1"
     x="377.78461"
     y="138.43507"
     id="text265"><tspan
       sodipodi:role="line"
       id="tspan263"
       x="377.78461"
       y="138.43507">filter</tspan></text>
  <g
     id="g870"
     transform="translate(18)">
    <text
       y="221.53319"
       x="319.54214"
       style="font-size:40px;font-family:Helvetica;fill:#000000;stroke:none"
       id="text14"
       font-size="40">
      <tspan
         id="tspan12"
         y="221.53319"
         x="319.54214">R</tspan>
    </text>
    <text
       id="text255"
       y="226.77211"
       x="375.13507"
       style="font-style:normal;font-variant:normal;font-weight:normal;font-stretch:normal;font-size:21.33333397px;line-height:23px;font-family:sans-serif;-inkscape-font-specification:'sans-serif, Normal';font-variant-ligatures:normal;font-variant-caps:normal;font-variant-numeric:normal;font-feature-settings:normal;text-align:center;letter-spacing:0px;word-spacing:0px;writing-mode:lr-tb;text-anchor:middle;fill:#000000;fill-opacity:1;stroke:none;stroke-width:1px;stroke-linecap:butt;stroke-linejoin:miter;stroke-opacity:1"
       xml:space="preserve"><tspan
         y="226.77211"
         x="375.13507"
         id="tspan253"
         sodipodi:role="line">load</tspan></text>
  </g>
</svg>

<svg xmlns="http://www.w3.org/2000/svg"
   xmlns:xlink="http://www.w3.org/1999/xlink"
   version="1.1"
   id="halfwave" width="100%" height="100%"  viewBox="-6 -6 534 342">
<desc>
XCircuit Version 3.7
File "halfwave.ps" Page 1
</desc>
<g stroke="black">
<path d="M304,160 L332,160 " fill="none" stroke-width="2" stroke-linejoin="bevel" stroke-linecap="round" stroke="#000000" />
<path d="M432,160 L404,160 " fill="none" stroke-width="2" stroke-linejoin="bevel" stroke-linecap="round" stroke="#000000" />
<path d="M404,160 L398,146 386,174 374,146 362,174 350,146 338,174 332,160 " fill="none" stroke-width="2" stroke-linejoin="bevel" stroke-linecap="round" stroke="#000000" />
<path d="M128,272 L128,320 192,320 192,272 z" fill="none" stroke-width="2" stroke-linejoin="bevel" stroke-linecap="round" stroke="#000000" />
<g transform="matrix(   1    0   -0    1 320 224)" fill="#000000" >
<text stroke="none" font-family="Helvetica" font-size="40" ><tspan x="0" y="0">Rload</tspan>
</text></g>
<g transform="matrix(   1    0   -0    1 400  48)" fill="#000000" >
<text stroke="none" font-family="Helvetica" font-size="40" ><tspan x="0" y="0">Cfilter</tspan>
</text></g>
<ellipse cx="288" cy="160" rx="16" ry="16" fill="none" stroke-width="2" stroke-linejoin="bevel" stroke-linecap="round" stroke="#000000" />
<path d="M320,80 L378,80 " fill="none" stroke-width="2" stroke-linejoin="bevel" stroke-linecap="round" stroke="#000000" />
<path d="M448,80 L390,80 " fill="none" stroke-width="2" stroke-linejoin="bevel" stroke-linecap="round" stroke="#000000" />
<path d="M390,48 L390,112 " fill="none" stroke-width="2" stroke-linejoin="bevel" stroke-linecap="round" stroke="#000000" />
<path d="M378,48 L378,112 " fill="none" stroke-width="2" stroke-linejoin="bevel" stroke-linecap="round" stroke="#000000" />
<path d="M256,272 L256,320 320,320 320,272 z" fill="none" stroke-width="2" stroke-linejoin="bevel" stroke-linecap="round" stroke="#000000" />
<path d="M384,272 L384,320 480,320 480,272 z" fill="none" stroke-width="2" stroke-linejoin="bevel" stroke-linecap="round" stroke="#000000" />
<path d="M0,0 L0,336 528,336 528,0 z" fill="none" stroke-width="2" stroke-linejoin="bevel" stroke-linecap="round" stroke="#000000" />
<ellipse cx="448" cy="160" rx="16" ry="16" fill="none" stroke-width="2" stroke-linejoin="bevel" stroke-linecap="round" stroke="#000000" />
<ellipse cx="160" cy="160" rx="16" ry="16" fill="none" stroke-width="2" stroke-linejoin="bevel" stroke-linecap="round" stroke="#000000" />
<path d="M288,176 C289,176 240,240 288,272 " fill="none" stroke-width="2" stroke-linejoin="bevel" stroke-linecap="round" stroke="#000000" />
<path d="M208,142 L240,160 208,178 z" fill="#000000" stroke="none" />
<path d="M176,160 L208,160 " fill="none" stroke-width="2" stroke-linejoin="bevel" stroke-linecap="round" stroke="#000000" />
<path d="M272,160 L240,160 " fill="none" stroke-width="2" stroke-linejoin="bevel" stroke-linecap="round" stroke="#000000" />
<path d="M240,142 L240,178 " fill="none" stroke-width="2" stroke-linejoin="bevel" stroke-linecap="round" stroke="#000000" />
<path d="M16,272 L16,320 112,320 112,272 z" fill="none" stroke-width="2" stroke-linejoin="bevel" stroke-linecap="round" stroke="#000000" />
<path d="M288,144 L288,80 320,80 " fill="none" stroke-width="2" stroke-linejoin="bevel" stroke-linecap="round" stroke="#000000" />
<path d="M448,144 L448,80 " fill="none" stroke-width="2" stroke-linejoin="bevel" stroke-linecap="round" stroke="#000000" />
<path d="M448,176 C449,176 512,240 448,272 " fill="none" stroke-width="2" stroke-linejoin="bevel" stroke-linecap="round" stroke="#000000" />
<path d="M64,272 C96,224 32,192 144,160 " fill="none" stroke-width="2" stroke-linejoin="bevel" stroke-linecap="round" stroke="#000000" />
<path d="M160,272 C161,272 192,224 160,176 " fill="none" stroke-width="2" stroke-linejoin="bevel" stroke-linecap="round" stroke="#000000" />
<g transform="matrix(   1    0   -0    1  32 304)" fill="#000000" >
<text stroke="none" font-family="Helvetica" font-size="40" ><tspan x="0" y="0">WG</tspan>
</text></g>
<g transform="matrix(   1    0   -0    1 144 304)" fill="#000000" >
<text stroke="none" font-family="Helvetica" font-size="40" ><tspan x="0" y="0">A1</tspan>
</text></g>
<g transform="matrix(   1    0   -0    1 256 304)" fill="#000000" >
<text stroke="none" font-family="Helvetica" font-size="40" ><tspan x="0" y="0">A2</tspan>
</text></g>
<g transform="matrix(   1    0   -0    1 384 304)" fill="#000000" >
<text stroke="none" font-family="Helvetica" font-size="40" ><tspan x="0" y="0">GND</tspan>
</text></g>
</g>
</svg>
